X: 25998
T: Mayor Harrison's Fedora
R: reel
M: 4/4
K: Edorian
|:G2 GF GABc|dBAG FDDA|Be (3eee edef|gefd e2 (3ABc|
dcdB AGFA|GEFD EFGA|dedB AGFA|GEFD E2 (3DEF:|

